icons/svg/crop.svg

﻿<?xml version="1.0" encoding="utf-8"?>
<!DOCTYPE svg PUBLIC "-//W3C//DTD SVG 1.1//EN" "http://www.w3.org/Graphics/SVG/1.1/DTD/svg11.dtd">
<svg xmlns="http://www.w3.org/2000/svg" xmlns:xlink="http://www.w3.org/1999/xlink" version="1.1" baseProfile="full" width="24" height="24" viewBox="0 0 24.00 24.00" enable-background="new 0 0 24.00 24.00" xml:space="preserve">
	<path fill="#000000" fill-opacity="1" stroke-width="0.2" stroke-linejoin="round" d="M 6.9994,16.9981L 6.9994,0.998068L 4.9994,0.998068L 4.9994,4.99807L 0.9994,4.99807L 0.9994,6.99807L 4.9994,6.99807L 4.9994,16.9981C 4.9994,18.1031 5.8954,18.9981 6.9994,18.9981L 16.9994,18.9981L 16.9994,22.9981L 18.9994,22.9981L 18.9994,18.9981L 22.9994,18.9981L 22.9994,16.9981M 16.9994,14.9981L 18.9994,14.9981L 18.9994,6.99807C 18.9994,5.89306 18.1044,4.99807 16.9994,4.99807L 8.9994,4.99807L 8.9994,6.99807L 16.9994,6.99807L 16.9994,14.9981 Z "/>
</svg>

<svg xmlns="http://www.w3.org/2000/svg" version="1.1" baseProfile="full" width="24" height="24" viewBox="0 0 24.00 24.00" xml:space="preserve"><path fill="#000" fill-opacity="1" stroke-width=".2" stroke-linejoin="round" d="M7 16.998v-16H5v4H1v2h4v10c0 1.105.895 2 2 2h10v4h2v-4h4v-2m-6-2h2v-8c0-1.105-.896-2-2-2H9v2h8v8z"/></svg>
